svgs/sharp-regular/tarp-droplet.svg

<svg xmlns="http://www.w3.org/2000/svg" viewBox="0 0 576 512"><!--! Font Awesome Pro 6.6.0 by @fontawesome - https://fontawesome.com License - https://fontawesome.com/license (Commercial License) Copyright 2024 Fonticons, Inc. --><path d="M288 160c-35.3 0-64-26.9-64-60S288-8 288-8s64 74.9 64 108s-28.7 60-64 60zM48 128l149.5 0c7 19.8 20.3 36.6 37.5 48L48 176l0 288 368 0 0-112 112 0 0-176-186.9 0c17.2-11.4 30.5-28.2 37.5-48L528 128l48 0 0 48 0 208L448 512 48 512 0 512l0-48L0 176l0-48 48 0zm64 80a32 32 0 1 1 0 64 32 32 0 1 1 0-64z"/></svg>

<svg xmlns="http://www.w3.org/2000/svg" viewBox="0 0 576 512"><!--! Font Awesome Pro 6.4.2 by @fontawesome - https://fontawesome.com License - https://fontawesome.com/license (Commercial License) Copyright 2023 Fonticons, Inc. --><path d="M288 160c-35.3 0-64-26.9-64-60S288-8 288-8s64 74.9 64 108s-28.7 60-64 60zM48 128H197.5c7 19.8 20.3 36.6 37.5 48H48l0 288 368 0V352H528V176l-186.9 0c17.2-11.4 30.5-28.2 37.5-48H528h48v48V384L448 512H48 0V464 176 128H48zm64 80a32 32 0 1 1 0 64 32 32 0 1 1 0-64z"/></svg>
